X:105
T: ES WOHNTE EINE WITWE
N: E0057A
O: Europa, Mitteleuropa, Deutschland, Magdeburg
R: erzaehlendes Volks - Lied, Sage, Mord
M: 3/4
L: 1/8
K: G
G2 | d3cA2 | G2B2
d2 | c2B2d2 | A2z2
G2 | d2d2BG | e2e2
c2 | B4A2 | G2z2

@@@ Tune index: 3755
